X: 270
T: The Church of Dromore
B: O'Neill's 270
N: "Moderate"
N: "Collected by F.O'Neill"
Z: 1997 by John Chambers <jc@trillian.mit.edu>
M: 6/8
L: 1/8
K:Am
D \
| (EA).A ABc | (TBAB) (G2A) | (Be).e dBA | (TBAB) GED \
| (EA).A ABc | (TBAB) (G2A) | (Be).e dBG | (BA).A A2 ||
|| d \
| (g^fg) (edB) | (BA).A A2d | (Tg^fg) edc | (TBAB) GED \
| (EA).A ABc | (TBAB) (G2A) | (Be).e dBG | BAA A2 ||


